X:1330
T: Ledlow's Chimes
T: Clogra Ledlow
S: B.Breathnach:"Ceol Rince na hEireann" IV/150
Z: B.Black
L: 1/8
M: 4/4
R: reel
K: G
dc|(3BcB GB AD (3DDD|(3BcB GB cedc|BAGB ADFA|BGAF G2 dc|
(3BcB GB ADFA|BDGB c2 dc|BG (3GGG AD (3DDD|GBAF G2 :|
dc|Bd (3ddd edeg|agab gedB|gedB gBdB|ADFA dcBA|
(3BcB GB ADFA|BDGB c2 dc|BG (3GGG AD (3DDD|GBAF G2 :|
